-----BEGIN PGP PUBLIC KEY BLOCK-----

mQINBGoPx7UBEADBJ4D0kdJJ7DK/5EtxMnkvpd7Z6d/h5dE4rOIu4hHWb9cPLG0R
xyIhtQjEyGtF4wuwLuNLOFvWVeIRGqBD36xw+lBgaP4YDcpfd67su1jCdFyatjUG
pvIdLAb60p6XYrIf5pEjisiIoYUJHi5gOW7PSyNXJ+6EuHu9arNx40j48L1GFF7g
qjPMOMsZStB5eUBnucAp5UtuSdPcQkkzYzya3L8i/5N675gL6Ixr3lSaSX9x95gp
sLsW3Z1AMChtw0jq+AT5o1PZ1t3Yih+v7CZSymJTC3MHkRY5rXrx+5hu34n7vy9M
xSA3UzQt8ebZda05X3KXO+zG7c4lR84tJUemgmy7mFK+VaCzcX6wlS8MuIV74zY4
vNDdcWApD3dh5ViW/g1rwRgb+OVmOtQW0n+f9oq1O5WK0qA2oyrFSFVdpcQr9p9v
BtaeAMN5PQ3jkAW4pSvrQPfTTelWSqFBYWZPKB8ds7ABWcefxLm6a5JYa0Ci35RW
OTWqLqA+3cNDwKoNWThXpmE4EkXNdqGId31ZcM4QY699bVjXBqJcSWk8nw3G+JbU
9UcAh9X1df4SgGq0uSdC7p4//SYwaB3cm4lH+D0kqsWQvtb8s8XJV6JEK+7GD7b9
Z6g1B9fcQC1K2xvtB8tAm2xyc1fyHBk/JkU2AaZIIbaD8JL4wz/J0XxNRwARAQAB
tDFMaWxpdGggTGludXggRGV2ZWxvcGVyIDxwYWNrYWdlc0BsaWxpdGhsaW51eC5v
cmc+iQJPBBMBCgA5FiEEdnP+x0gPQ85ty4Ac4i+v3M8a1+MFAmoPx7UDGy8EBQsJ
CAcCBhUKCQgLAgQWAgMBAh4BAheAAAoJEOIvr9zPGtfjnRQQALtGb9kGBL6YjqpD
SGsR2yDIOxBqBD4EFfvpZDtmtXCCSesxDAFZOf0HySqu3C7BwUHJF4uOPLNG+S1w
XHyGYATgqBafhTnP4wc60OCGzpRrvpLsHZpqclRFONAv9SHsu0iYNsupYndI2iqm
3OH71HaDy42Rayy+CS6zatAKWzPVMN/7jNsUC/MxiJ/mUJbiPqU6xnIj7viJVXdT
OXgXVdYwBFBQw56KWp2siz+Gyd13qxKpkLaij0nivUdkeos5KvZkrSxI/93rLgTH
hSob0l3CSSRyv3oBjbMGHOrapx/PTL0JkdrtvwLBjH9L9OSwGn1WcylPikQC27MY
r8/TFg86vsmawWg79u1DefEdnF/aEmRTiacRQr6oVvykIuqUBLJFM/+ZyF+DkQZB
+WeVARc1lA7M1+MtGL0HmQtXE45tOeByivoyzsySCOnJNQPCWuRlWxDtUINj0OAk
t8A9XkGJZy1B7aTyabKvFw/m/Lo4do6x8++DhQqrSQaOUmb+MWQ7R+AEM2hms+VS
/2/Ga0qgUODNafE7mTaJy2tAFrnIPhkn03uG9kmapxJ7B05i82sdSWsO0gbgmPRX
kyrn7v9qa+whskHzkgaJFEkGnWgQWqHDWUXDgBdefzDS50vcufBUwgiX7rjl64eH
XaZw1LvKoz6yg9nDgTGebxMe30rVuQINBGoPx7UBEADTVJSCm4LMKEYtPVySC2wz
lJJMYyaRoKwKwgTbT3JujxkAyn95Ku1iP7W/RnUXtHYA2xFe1QOTJA3J++MwlNNt
nmhq2wZuQ3v34xl76AKKjCy3jA3RNQrjBdpNvyDXhofj3OONV492JJza+mD/yRjW
d6h5mJWA4oDpJse7nDrjwKA5JJpgScuf0fNp0vxjXwb4pAOFuTQpUFylvX8XR8Dv
sttaQzdX24LuMhL3Iuapmw3FwWkeQqCLF1uEnnDjISqMNyBBXlajHxYXCqzmDtzO
wEKdJqcVR86xmJr5dlbOQe8S8zFDXeE0EZs2324UuSkWxolQp9IKq8XSCVQYOGBi
zHURNJyLv0bQs7TPV4skkVrX6NGWpi9oXwRvF3nsJTcbYKMSc6X1gbcqce2OG1mJ
33O2DUXJU0AiCuSGfKfIgjs1KhaUQtGymhR06wBRccQ27H+v+d4JkUxiQF+CCQHC
3pd+pfB2dLstxzG7kNcPA6cBkDeAj6QLjXMgbRqYNKbWIFVrXc1SOcV06+v4wxfd
VxVdxWF6CUW9vj69MNXCgH9oxtvL4ZedqLdqRGXVRs/uiekxYJamdhUsvYrzTZ/b
ysaG6qgEKvfahg+OEKM2h7MMvQWGpafSf0lE2vadVocCIj8XudX9gOY35feJepHD
XfwrRxEhtCl2C/TXV8uaLQARAQABiQRsBBgBCgAgFiEEdnP+x0gPQ85ty4Ac4i+v
3M8a1+MFAmoPx7UCGy4CQAkQ4i+v3M8a1+PBdCAEGQEKAB0WIQQWxiEq7qGcwzUS
yqi+MZGW25YwvAUCag/HtQAKCRC+MZGW25YwvAcrD/4g/ku4yPlrUC40x6ggMMNw
+4+tFEmpFRki1B0m0EWjEAvp9SDOFV9zda4+7mnUQYqyAcDBJu+amzdsqt/lXi2z
mxcGcpQU+cFjOi/O6jZFJuB9R2iCSrdqrsfSupJmgmVxD9zWUqFQ1diAd3FBCOXu
BNWgiPNfSS8FW4s6IF66ddOy6CBSXqHq7lt+L8VgOS4SfCO+nOTULm9AUTHLpHyz
Rv3q7LTW8RY7cNr6JA1wNynD+UWWpDO4tTbEPEc0GGVuh8mWWKMxHrp9TLOa+P6a
8952Ofc1v6Asv0XH/4yzeiAuXb0/sFhsTYej8jnt29Oo+FtDnvF1zT6x3DAFket9
+qIUL3mdr5NHkZmaOQZIpv2EVyEZB/g16bS0rw0/Y9z1k2wjVCN97/UprRIkII8D
OmPtcx382JKH9IaK3eo3B0usyLFsoG/w5hNBlOSwz5Fx6AlC7u+NI6qOkRR6qXXr
6JdZBcJjWuE8VCCSWqKTQDCFZeszV6lM+KkaRbhs800lfekSJRNZ3ZV9D0Pqb+3S
R4eDbg1He6hGDIgUIvHRK49n+e0g6MgXE0SDH/shDjBTJAfMYYxJEV7Xajt1IMq4
5+Y3iPn0q47zS75kPVZEXmEXK4GfIxvwdmtgdwqKGDzm91QLLWCi5I2eMn14oQ+h
2I9G4cwGNOv822I/5bVJgR+6D/0eVjAFCc3Owj1TDlNZgVzX/OQTUUMWu1QXbp9S
AiuwcLVlvbYBRtfWZjQ6vB/gxIEpP5lNC3HXuK3FAje50Xv7gsGRrWuuaiBZzLNT
/5BF3cRTdUxZ2tBpi/ZI/eUIeqycAf45WyS/07GIIwrBo1jedxMntqIy2cjprFci
WvIiQhGkVtV4wEFZxgFrnNdbyq1U/eBSuADq/LKL0eV7HFhbhQb0hU1qtTDTq2yU
HGMan7ppiCt5kQk3TT/wwjK3ZYgubwGLCbBG7ifgw3Sgf0gAx9yjTXu8lI/etA35
k1+0o4G6hGIuvWvyWvU3Dv7v5YXu15B0Cz01foVQ2gm6NqYxqb3LdH8f0rb9CTsC
AbCsNzfffMa+BuV3oRpMMhPHVx0xZM/zChRIsn0SNWRDhsNBciOStxUoQMRMTt5a
/UJIdl6unVCvvrED42kKJhbueOYsN4ZckjdOGLQTuwOxQjj2F+GcnIuJEzLGgEIK
o0sZScNwsIPY4rAXgT6cPsRLyhNOImwYd4PO5d9hs+FM7Hgmb3Poy0PApN0xtite
jRUFYLwWeZGNYktcJmd25fdsJDfzYgtp1ThuV/N6xJLy6QpRpkTlBxkFKkOwUOC6
sqiWauiHqLoIU3W4fLbZkiCnb3icE5KVro3oPx/xII8TRkgZTV+lqBz++A7NXV+k
h6bQ7w==
=4RuH
-----END PGP PUBLIC KEY BLOCK-----
